assets/Cup with straw/Flat/cup_with_straw_flat.svg

<svg width="32" height="32" viewBox="0 0 32 32" fill="none" xmlns="http://www.w3.org/2000/svg">
<path d="M15.25 2.75C15.25 2.33579 15.5858 2 16 2H20V3.5H16.75V8C16.75 8.41421 16.4142 8.75 16 8.75C15.5858 8.75 15.25 8.41421 15.25 8V2.75Z" fill="#CA0B4A"/>
<path d="M20.5 2.75C20.5 3.16421 20.2761 3.5 20 3.5C19.7239 3.5 19.5 3.16421 19.5 2.75C19.5 2.33579 19.7239 2 20 2C20.2761 2 20.5 2.33579 20.5 2.75Z" fill="#990838"/>
<path d="M11.0002 9L11.5002 8C11.5024 7.99569 11.5046 7.99137 11.5068 7.98705C11.7511 7.50692 12.0091 7 13.0002 7H19.0002C20.0002 7 20.2629 7.5088 20.5002 8L21.0002 9V10H11.0002V9Z" fill="#CDC4D6"/>
<path d="M9.50016 29L8.5835 18L8.78162 17.8589L15.9828 14.3927L23.1841 17.8589L23.4168 18L22.5002 29C22.4592 29.5558 22.0002 30 21.5002 30H10.5002C10.0002 30 9.56521 29.5504 9.50016 29Z" fill="#CDC4D6"/>
<path d="M23.4167 18H8.58333L8 11L16 10.5L24 11L23.4167 18Z" fill="#E5336D"/>
<path d="M7 10C7 9.44772 7.44772 9 8 9H24C24.5523 9 25 9.44772 25 10C25 10.5523 24.5523 11 24 11H8C7.44772 11 7 10.5523 7 10Z" fill="#F3EEF8"/>
</svg>

<svg xmlns="http://www.w3.org/2000/svg" width="32" height="32" fill="none"><path fill="#CA0B4A" d="M15.25 2.75A.75.75 0 0 1 16 2h4v1.5h-3.25V8a.75.75 0 0 1-1.5 0V2.75Z"/><path fill="#990838" d="M20.5 2.75c0 .414-.224.75-.5.75s-.5-.336-.5-.75.224-.75.5-.75.5.336.5.75Z"/><path fill="#CDC4D6" d="m11 9 .5-1 .007-.013C11.75 7.507 12.009 7 13 7h6c1 0 1.263.509 1.5 1l.5 1v1H11V9ZM9.5 29l-.916-11 .198-.141 7.2-3.466 7.202 3.466.233.141-.917 11c-.04.556-.5 1-1 1h-11c-.5 0-.935-.45-1-1Z"/><path fill="#E5336D" d="M23.417 18H8.583L8 11l8-.5 8 .5-.583 7Z"/><path fill="#F3EEF8" d="M7 10a1 1 0 0 1 1-1h16a1 1 0 1 1 0 2H8a1 1 0 0 1-1-1Z"/></svg>
